!!!COM: Palestrina, Giovanni Perluigi da
!!!OPR: Missa Confitebor tibi
!!!OMD: Sanctus
!!!OTL: Pleni
**kern	**kern	**kern	**kern
*Ibass	*Itenor	*Icalto	*Icant
!Bassus	!Tenor	!Altus	!Cantus
*clefF4	*clefGv2	*clefG2	*clefG2
*k[b-]	*k[b-]	*k[b-]	*k[b-]
*G:dor	*G:dor	*G:dor	*G:dor
*M4/2	*M4/2	*M4/2	*M4/2
=38	=38	=38	=38
0r	0r	1r	0dd
.	.	[1g	.
=39	=39	=39	=39
0r	0r	1g]	1ee
.	.	1a	1ff
=40	=40	=40	=40
0r	0r	1b	1gg
.	.	1cc	1ee
=41	=41	=41	=41
0r	0r	2a	2.ff
.	.	2.b-	.
.	.	.	4ee
.	.	.	4dd
.	.	4a	4cc
.	.	4g	4b-
.	.	4f	4a
=42	=42	=42	=42
0r	0r	2g	2b-
.	.	2.cc	2.a
.	.	4b-	4g
.	.	4b-	[2g
.	.	8a	.
.	.	8g	.
=43	=43	=43	=43
1r	0d	1a	2g]
.	.	.	2f#
[1G	.	2.b-	[1g
.	.	4a	.
=44	=44	=44	=44
1G]	1e	4g	1g]
.	.	4f	.
.	.	4e	.
.	.	4d	.
1A	1f	1c	1r
=45	=45	=45	=45
1B-	1g	1d	0r
1c	1e	1r	.
=46	=46	=46	=46
2A	2.f	1r	0r
2.B-	.	.	.
.	4e	.	.
.	4d	[1d	.
4A	4c	.	.
4G	4B-	.	.
4F	4A	.	.
=47	=47	=47	=47
2G	4B-	1d]	1r
.	4c	.	.
2B-	1d	.	.
1A	.	1e	[1a
.	2c#	.	.
=48	=48	=48	=48
1D	1d	1f	1a]
1r	1G	1g	1b-
=49	=49	=49	=49
0r	2A	2e	1cc
.	2A	2.f	.
.	1B-	.	1dd
.	.	4e	.
.	.	4d	.
.	.	4c	.
=50	=50	=50	=50
1r	2G	2d	2b-
.	4c	2e	2.cc
.	4d	.	.
[1A	4e	2c	.
.	8d	.	4b-
.	8e	.	.
.	2f	[2d	4a
.	.	.	4g
=51	=51	=51	=51
1A]	1e	2d]	2.a
.	.	2c#	.
.	.	.	4g
1B-	2d	1d	2f
.	2G	.	2g
=52	=52	=52	=52
1c	1A	2r	1e
.	.	2a	.
1d	1r	2f	2d
.	.	2f	2dd
=53	=53	=53	=53
2B-	1r	4g	2dd
.	.	4f	.
2.c	.	4e	2g
.	.	4d	.
.	[1c	2e	2.cc
4B-	.	.	.
4A	.	2e	.
4G	.	.	4b-
=54	=54	=54	=54
2.A	1c]	2f	4a
.	.	.	4g
.	.	2.e	1a
4G	.	.	.
2F	1d	.	.
.	.	4d	.
2G	.	[2d	2b-
=55	=55	=55	=55
1E	1e	2d]	1g
.	.	2c#	.
1D	1f	[1d	2r
.	.	.	2dd
=56	=56	=56	=56
1BB-	2d	1d]	2.ff
.	2.f	.	.
.	.	.	4ee
[1B-	.	1d	4dd
.	4e	.	4cc
.	4d	.	4b-
.	4c	.	4a
=57	=57	=57	=57
2B-]	2.d	2.f	2b-
2F	.	.	2.a
.	4c	4e	.
2G	2B-	2d	.
.	.	.	4g
2C	2c	2e-	[2g
=58	=58	=58	=58
2r	1A	1c	2g]
1c	.	.	2f#
.	1G	2d	1g
2B-	.	[2g	.
=59	=59	=59	=59
2G	0r	2g]	2r
1B-	.	2f	1dd
.	.	2d	.
4A	.	[2f	2cc
4G	.	.	.
=60	=60	=60	=60
2F	1r	4f]	2a
.	.	4e	.
2G	.	1d	1b-
1E-	2r	.	.
.	[2g	2c	4a
.	.	.	4g
=61	=61	=61	=61
0D	2g]	2.d	2b-
.	2f	.	2.a
.	.	4e	.
.	2d	4f	.
.	.	4g	4g
.	[2f	[2a	4f
.	.	.	4g
=62	=62	=62	=62
0r	2f]	2a]	4a
.	.	.	4b-
.	4e	4g	4cc
.	4d	4f	4dd
.	2c	2g	2ee
.	2d	2f	[2ff
=63	=63	=63	=63
0r	1B-	4d	4ff]
.	.	4e	4ee
.	.	4f	1dd
.	.	4d	.
.	1A	2e	.
.	.	2f	2cc
=64	=64	=64	=64
2r	1G	1g	1b-
1G	.	.	.
.	2r	1d	[1a
2F	[2d	.	.
=65	=65	=65	=65
2D	2d]	0r	1a]
1F	2c	.	.
.	2A	.	1r
4E	[2c	.	.
4D	.	.	.
=66	=66	=66	=66
4C	4c]	2r	1r
4D	4B-	.	.
4E	4G	1g	.
4F	4A	.	.
4G	4B-	.	2r
4A	4c	.	.
[2B-	4d	2f	[2dd
.	4e	.	.
=67	=67	=67	=67
2B-]	4f	2d	2dd]
.	4g	.	.
4A	1a	1f	2cc
4G	.	.	.
2F	.	.	2a
2G	4g	4e	[2b-
.	4f	4d	.
=68	=68	=68	=68
2A	2e	2c	4b-]
.	.	.	4a
2D	2f	2d	1a
2r	2.d	1B-	.
[2d	.	.	2g
.	4e	.	.
=69	=69	=69	=69
2d]	2f	2A	2.a
2c	4e	1a	.
.	4d	.	4b-
2A	[1e	.	1cc
[2c	.	2g	.
=70	=70	=70	=70
2c]	2e]	2e	1g
4B-	2d	1g	.
4A	.	.	.
4G	1d	.	2r
4A	.	.	.
[2B-	.	4f	[2dd
.	.	4e	.
=71	=71	=71	=71
2B-]	0r	4d	2dd]
.	.	4e	.
4A	.	2.f	2cc
4G	.	.	.
4F	.	.	2a
4G	.	4e	.
2A	.	2c	[2cc
=72	=72	=72	=72
0G	1r	0d	2cc]
.	.	.	4b-
.	.	.	4a
.	2r	.	4g
.	.	.	4a
.	[2g	.	4b-
.	.	.	4cc
=73	=73	=73	=73
1D	2g]	2r	4dd
.	.	.	4ee
.	2f	2a	2.ff
[1D	2d	2b-	.
.	.	.	4ee
.	[2f	[2a	4dd
.	.	.	4cc
=74	=74	=74	=74
2D]	2f]	2a]	2dd
2E	4e	2g	2.cc
.	4d	.	.
1F	2c	4a	.
.	.	4g	4b-
.	2d	4f	[2a
.	.	4e	.
=75	=75	=75	=75
1G	1B-	0d	4a]
.	.	.	4g
.	.	.	1g
1D	1A	.	.
.	.	.	2f#
=76	=76	=76	=76
0G	0G	0d	0g
*-	*-	*-	*-
!!!CDT: 1525/^1526/-1594/2/2
!!!OCY: Italia
!!!AGN: Mass (Parody)
!!!AST: renaissance, vocal
!!!ASW: Motet 1572 (Palestrina)
!!!PWK: Masses, Book 8vce
!!!RNB: Cadence finals: D,Bb
!!!YOR: Le Opere Complete, v. 30, p. 163
!!!YOO: Rome, Italy: Fratelli Scalera
!!!END: 1992//
!!!EED: John Miller
!!!YEC: Copyright 2000, John Miller
!!!YEN: United States of America
!!!YEM: Rights to all derivative electronic formats reserved.
!!!YEM: Refer to licensing agreement for further details.
!!!YEM: This file must be accompanied by the licensing agreement.
!!!YEM: A copy of the licensing agreement may be found at http://www.music-cog.ohio-state.edu/HumdrumDatabases/Palestrina/license.txt
!!!EMD: converted to Humdrum by Bret Aarden
